X: 13
T: Inventio 13
C: Johann Sebastian Bach
%%abc-version 2.0
%%abcx-abcm2ps-target-version 5.9.1 (29 Sep 2008)
%%abc-creator hum2abc beta
%%abcx-conversion-date 2021/01/28 10:10:55
%%abc-copyright Copyright 1994, David Huron
%%abc-edited-by David Huron
%%abcx-initial-encoding-date 1986 November
%%gracespace 0 6 6
%%humdrum-veritas 1764050824
%%humdrum-veritas-data 2691563228
%%linebreak <none>
%%barnumbers 0
L: 1/16
M: 4/4
N: Derived from inven13.krn
Q: 1/4=76
%%staves {1 2}
V: 1 clef=treble
V: 2 clef=bass
K: C
[V:1] z E A c B E B d c2 e2 ^G2 e2 | 
[V:2] A,,2A,4^G,2 A, E, A, C B, E, B, D | 
[V:1] A E A c B E B d c2 A2z4 | 
[V:2] C2 A,2 ^G,2 E,2 A, E, A, C B, E, B, D | 
[V:1] z e c e A c E G F2 A2 d2 f2- | 
[V:2] C2 A,2 C2 A,2 D A, F, A, D, F, A,, C, | 
[V:1] f d B d G B D F E2 G2 c2 e2- | 
[V:2] B,,2 D,2 G,2 B,2- B, G, E, G, C, E, G,, B,, | 
[V:1] e c A c F2 d2- d B G B E2 c2- | 
[V:2] A,,2 C,2 D, F, B,, D, G,,2 B,,2 C, E, A,, C, | 
[V:1] c A F A D2 B2 c2 z2z4 | 
[V:2] F,,2 D,,2 G,, G, F, G, C, G, C E D G, D F | 
[V:1] z G c e d G d f e2 g2 B2 g2 | 
[V:2] E2 C2 B,2 G,2 C G, C E D G, D F | 
[V:1] c G c e d G d f e2 c2 g2 e2 | 
[V:2] E2 C2z4z G E G C E G, B, | 
[V:1] c' a e a c e A c d2 ^f2 a2 c'2 | 
[V:2] A,2 C2 E2 G2 ^F A D F A, D ^F, A, | 
[V:1] b g d g B d G B c2 e2 g2 b2 | 
[V:2] G,2 B,2 D2 ^F2 E G C E G, C E, G, | 
[V:1] a ^f ^d f B d ^F A G2 g2- g e c e | 
[V:2] ^F,2 A,2 B,2 ^D2 z E C E A, C E G | 
[V:1] A2 ^f2- f d B d G2 e2- e c A c | 
[V:2] ^F D B, D G, B, D F E C A, C ^F, A, C2- | 
[V:1] ^F g ^f e ^d f B d e2 z2z4 | 
[V:2] C B, C A, B,2 B,,2 E, E B, G, E, B,, G,, B,, | 
[V:1] z g _b g e g ^c e g e c e A z z2 | 
[V:2] E,,2 E,2 G,2 _B,2 ^C,2 z2 z G F E | 
[V:1] z f _a f d f B d f d B d G z z2 | 
[V:2] D2 D,2 F,2 _A,2 B,,2 z2 z F E D | 
[V:1] z e g e c e A c ^d c A c ^F z z2 | 
[V:2] C2 C,2 E,2 ^F,2 A,,2 z2 z E ^D ^C | 
[V:1] z =d f d B d ^G B d B G B E z z2 | 
[V:2] B,2 B,,2 D,2 F,2 ^G,,2 z2 z D C B, | 
[V:1] z E A c B E B d c2 A2 ^G2 E2 | 
[V:2] C2 A,2 ^G,2 E,2 A, E, A, C B, E, B, D | 
[V:1] A c e c A c ^F A c A F A ^D c B A | 
[V:2] C E A E C E A, C ^F, A, C A, F, A, ^D, F, | 
[V:1] ^G B d B G B D =F G F D F B, F E D | 
[V:2] E,2 ^G,2 B,2 G,2 E,2 B,,2 ^G,,2 E,,2 | 
[V:1] C E A E C E A, C ^D C A, C ^F, C B, A, | 
[V:2] A,,2 C,2 E,2 C,2 A,,2 C,2 ^D,,2 z2 | 
[V:1] ^G,2 B2 ^G2 E2 z E A c B E B d | 
[V:2] z B, ^G, E, D, B, G, D, C,2 E,2 ^G,,2 E,2 | 
[V:1] c A c e d B d f e c e g f e d c | 
[V:2] A,,2 ^F,2 B,,2 ^G,2 C,2 A,2 D,2 _B,2 | 
[V:1] B c d e f d ^g d b d c a f d B d | 
[V:2] ^G,2 =F,2 D,2 B,,2 ^G,,2 A,,2 D,,2 E,,2 | 
[V:1] ^G B c A E A B G A E C E!fermata!A,4 |]  
[V:2] F,,2 ^D,,2 E,,2 E,2!fermata!A,,8 |]  


